flaticon/emoticons/happy-8.svg

<svg xmlns="http://www.w3.org/2000/svg" width="32" height="32" viewBox="0 0 24 24">
    <path d="M9.816406 7.910156C9.816406 8.964844 8.964844 9.816406 7.910156 9.816406 6.855469 9.816406 6 8.964844 6 7.910156 6 6.855469 6.855469 6 7.910156 6 8.964844 6 9.816406 6.855469 9.816406 7.910156zM18.546875 7.910156C18.546875 8.964844 17.691406 9.816406 16.636719 9.816406 15.582031 9.816406 14.726562 8.964844 14.726562 7.910156 14.726562 6.855469 15.582031 6 16.636719 6 17.691406 6 18.546875 6.855469 18.546875 7.910156zM18.546875 7.910156"/>
    <path d="M 12 0 C 5.382812 0 0 5.382812 0 12 C 0 18.617188 5.382812 24 12 24 C 18.617188 24 24 18.617188 24 12 C 24 5.382812 18.617188 0 12 0 Z M 12 22.910156 C 5.984375 22.910156 1.089844 18.015625 1.089844 12 C 1.089844 5.984375 5.984375 1.089844 12 1.089844 C 18.015625 1.089844 22.910156 5.984375 22.910156 12 C 22.910156 18.015625 18.015625 22.910156 12 22.910156 Z M 12 22.910156"/>
    <path d="M 18 13.089844 L 6 13.089844 C 5.699219 13.089844 5.453125 13.335938 5.453125 13.636719 C 5.453125 17.246094 8.390625 20.183594 12 20.183594 C 15.609375 20.183594 18.546875 17.246094 18.546875 13.636719 C 18.546875 13.335938 18.300781 13.089844 18 13.089844 Z M 12 19.089844 C 9.175781 19.089844 6.847656 16.933594 6.574219 14.183594 L 17.425781 14.183594 C 17.152344 16.933594 14.824219 19.089844 12 19.089844 Z M 12 19.089844"/>
</svg>

<svg xmlns="http://www.w3.org/2000/svg" width="32" height="32" viewBox="0 0 24 24">
    <path d="M9.816 7.91A1.904 1.904 0 0 1 7.91 9.816 1.907 1.907 0 1 1 7.91 6c1.055 0 1.906.855 1.906 1.91zm0 0M18.547 7.91a1.907 1.907 0 0 1-1.91 1.906 1.907 1.907 0 1 1 0-3.816 1.91 1.91 0 0 1 1.91 1.91zm0 0"/>
    <path d="M12 0C5.383 0 0 5.383 0 12s5.383 12 12 12 12-5.383 12-12S18.617 0 12 0zm0 22.91C5.984 22.91 1.09 18.016 1.09 12S5.984 1.09 12 1.09 22.91 5.984 22.91 12 18.016 22.91 12 22.91zm0 0"/>
    <path d="M18 13.09H6c-.3 0-.547.246-.547.547A6.555 6.555 0 0 0 12 20.184a6.555 6.555 0 0 0 6.547-6.547c0-.301-.246-.547-.547-.547zm-6 6a5.459 5.459 0 0 1-5.426-4.906h10.852A5.459 5.459 0 0 1 12 19.09zm0 0"/>
</svg>
